dressly/src/assets/brand/balenciaga.svg

<svg width="167" height="111" viewBox="0 0 167 111" fill="none" xmlns="http://www.w3.org/2000/svg">
<path d="M141.318 50.583H141.405C141.606 51.5316 141.693 51.9639 141.897 52.6523L143.081 57.3111H139.614L140.798 52.6523C140.971 51.9639 141.088 51.5316 141.318 50.583ZM144.465 62.8034H147.731L143.63 48.2807H139.18L135.049 62.8044H138.14L139.064 59.5544H143.542L144.465 62.8034ZM127.971 63.0035C129.762 63.0035 131.495 62.5732 132.623 62.113V54.8396H127.595V57.168H129.648V60.4159C129.271 60.6461 128.634 60.7912 127.944 60.7912C125.806 60.7912 125.141 59.7275 125.141 56.6517V54.7796C125.141 51.7327 125.775 50.2368 127.74 50.2368C129.098 50.2368 129.562 51.1574 129.593 52.136H132.684C132.65 49.5764 130.803 47.9955 127.739 47.9955C123.462 47.9955 121.904 50.467 121.904 54.4664V56.5946C121.874 60.9353 123.349 63.0045 127.97 63.0045M113.5 50.583H113.588C113.789 51.5316 113.877 51.9639 114.078 52.6523L115.264 57.3111H111.797L112.981 52.6523C113.154 51.9639 113.269 51.5316 113.5 50.583ZM116.649 62.8044H119.911L115.812 48.2807H111.36L107.233 62.8044H110.324L111.248 59.5544H115.724L116.649 62.8034V62.8044ZM101.048 62.8044H104.139V48.2807H101.048V62.8044ZM92.5555 63.0045C95.9919 63.0045 97.6679 61.4215 97.7542 58.4638H94.636C94.5778 59.9006 94.1141 60.7912 92.6428 60.7912C90.9688 60.7912 90.3345 59.6135 90.3345 56.5946V54.4664C90.3345 51.4175 90.9688 50.2688 92.6428 50.2688C94.2045 50.2688 94.4634 51.3045 94.5196 52.3971H97.6388C97.6087 49.8666 96.1655 48.0555 92.5565 48.0555C88.5401 48.0555 87.0688 50.557 87.0688 54.4664V56.5946C87.0688 60.533 88.5391 63.0045 92.5555 63.0045ZM71.6404 62.8044H74.3862V54.3793C74.3862 53.2006 74.326 51.7627 74.2678 50.583H74.3581C74.7897 52.0779 75.0205 52.8544 75.425 53.9751L78.6325 62.8044H83.1387V48.2807H80.3938V56.3635C80.3938 57.4241 80.4239 58.835 80.452 60.1858H80.3657C80.1349 59.1782 79.9302 58.1716 79.324 56.5336L76.3202 48.2817H71.6133V62.8044H71.6404ZM59.0451 62.8044H67.4513V60.473H62.1362V56.4476H66.9586V54.0921H62.1352V50.583H67.2486V48.2536H59.0421V62.8024L59.0451 62.8044ZM47.7516 62.8044H55.8406V60.473H50.8427V48.2817H47.7516V62.8044ZM38.1611 50.582H38.2484C38.4491 51.5306 38.5395 51.9629 38.7402 52.6513L39.9244 57.3101H36.459L37.6432 52.6513C37.8159 51.9629 37.9323 51.5306 38.1621 50.582M41.3104 62.8044H44.5751L40.4724 48.2807H36.0244L31.8926 62.8044H34.9837L35.907 59.5544H40.3861L41.3114 62.8034L41.3104 62.8044ZM22.3884 60.589V56.3645H24.2672C25.8559 56.3645 26.6056 57.0829 26.6056 58.4898C26.6056 60.0407 25.6241 60.6191 24.209 60.6191H22.3884V60.589ZM22.3884 54.1482V50.497H24.3254C25.7385 50.497 26.3457 51.1274 26.3457 52.3081C26.3457 53.4888 25.6562 54.1492 24.3545 54.1492L22.3884 54.1482ZM19.2973 62.8044H24.7569C27.8179 62.8044 29.6947 61.7087 29.6947 58.6919C29.6947 56.7647 28.5706 55.444 26.4892 55.2398V55.1558C28.3358 54.8396 29.4358 53.833 29.4358 51.9068C29.4358 49.4033 27.9906 48.2827 24.9015 48.2827H19.2692V62.8044H19.2973Z" fill="#BDBDBD"/>
</svg>

<svg xmlns="http://www.w3.org/2000/svg" width="167" height="111" fill="none"><path fill="#BDBDBD" d="M141.318 50.583h.087c.201.949.288 1.38.492 2.07l1.184 4.658h-3.467l1.184-4.659c.173-.688.29-1.12.52-2.069m3.147 12.22h3.266l-4.101-14.522h-4.45l-4.131 14.523h3.091l.924-3.25h4.478zm-16.494.2c1.791 0 3.524-.43 4.652-.89V54.84h-5.028v2.328h2.053v3.248c-.377.23-1.014.375-1.704.375-2.138 0-2.803-1.063-2.803-4.14V54.78c0-3.047.634-4.543 2.599-4.543 1.358 0 1.822.92 1.853 1.899h3.091c-.034-2.56-1.881-4.14-4.945-4.14-4.277 0-5.835 2.471-5.835 6.47v2.129c-.03 4.34 1.445 6.41 6.066 6.41M113.5 50.582h.088c.201.949.289 1.38.49 2.07l1.186 4.658h-3.467l1.184-4.659c.173-.688.288-1.12.519-2.069m3.149 12.221h3.262l-4.099-14.523h-4.452l-4.127 14.523h3.091l.924-3.25h4.476zm-15.601 0h3.091V48.281h-3.091zm-8.493.2c3.437 0 5.113-1.582 5.2-4.54h-3.119c-.058 1.437-.522 2.327-1.993 2.327-1.674 0-2.308-1.177-2.308-4.196v-2.129c0-3.049.634-4.197 2.308-4.197 1.561 0 1.82 1.035 1.877 2.128h3.119c-.03-2.53-1.474-4.341-5.082-4.341-4.017 0-5.488 2.501-5.488 6.41v2.129c0 3.938 1.47 6.41 5.486 6.41m-20.915-.2h2.746V54.38c0-1.178-.06-2.616-.118-3.796h.09c.432 1.495.662 2.271 1.067 3.392l3.207 8.83h4.507V48.28h-2.745v8.083c0 1.06.03 2.471.058 3.822h-.086c-.231-1.008-.436-2.014-1.042-3.652l-3.004-8.252h-4.707v14.522zm-12.595 0h8.406v-2.331h-5.315v-4.025h4.823v-2.356h-4.824v-3.509h5.114v-2.33h-8.207v14.55zm-11.293 0h8.089v-2.331h-4.998V48.282h-3.091zm-9.59-12.222h.086c.201.949.291 1.38.492 2.07l1.184 4.658H36.46l1.184-4.659c.173-.688.29-1.12.52-2.069m3.147 12.222h3.265l-4.103-14.523h-4.448l-4.131 14.523h3.09l.924-3.25h4.48zM22.388 60.59v-4.224h1.88c1.588 0 2.338.718 2.338 2.125 0 1.55-.982 2.13-2.397 2.13h-1.82zm0-6.44v-3.652h1.937c1.413 0 2.02.63 2.02 1.811 0 1.18-.689 1.841-1.99 1.841zm-3.09 8.655h5.459c3.06 0 4.938-1.095 4.938-4.112 0-1.927-1.124-3.248-3.206-3.452v-.084c1.847-.316 2.947-1.323 2.947-3.25 0-2.503-1.445-3.623-4.535-3.623H19.27v14.521z"/></svg>
